flags/es-ml.svg

<svg width="512" height="512" viewBox="0 0 512 512" fill="none" xmlns="http://www.w3.org/2000/svg">
<rect width="512" height="512" fill="var(--flag-palette-light-blue, #338af3)"/>
<path d="M122.398 278.3H389.598V311.7H122.398V278.3Z" fill="var(--flag-palette-mid-grey-3, #acabb1)"/>
<path d="M167 178L256 189.2L345 178.1V124.7L309.4 142.5L256 89L202.6 142.5L167 124.7V178Z" fill="var(--flag-palette-yellow, #ffda44)"/>
<path d="M144.701 345H111.301V283.8L122.401 267.1L111.301 250.4V211.4H144.701V345ZM400.701 345H367.301V211.6H400.701V250.6L389.601 267.6L400.701 283.9V345Z" fill="var(--flag-palette-white, #eeeeee)"/>
<path d="M111.301 250.4H400.701V283.8H111.301V250.4Z" fill="var(--flag-palette-mid-grey-3, #acabb1)"/>
<path d="M256 389.6C206.9 389.6 167 349.6 167 300.6V178H345V300.4C345 312.088 342.698 323.661 338.225 334.459C333.753 345.257 327.197 355.068 318.932 363.332C310.668 371.597 300.857 378.153 290.059 382.625C279.261 387.098 267.688 389.4 256 389.4V389.6Z" fill="var(--flag-palette-white, #eeeeee)"/>
<path d="M255.998 356.2C241.243 356.174 227.101 350.293 216.677 339.851C206.253 329.408 200.398 315.255 200.398 300.5V211.5H311.598V300.5C311.598 315.255 305.744 329.408 295.32 339.851C284.896 350.293 270.754 356.174 255.998 356.2Z" fill="var(--flag-palette-blue, #0052b4)"/>
<path d="M167 178H200.4V211.5H167V178ZM311.7 178H345V211.5H311.6L311.7 178ZM311.7 250.4H345V283.8H311.6L311.7 250.4ZM167 250.4H200.3V283.8H167V250.4ZM239.3 178.1H272.7V211.5H239.3V178.1ZM256 356C250.2 356 244.6 355.2 239.3 353.5V388C250.334 390.098 261.666 390.098 272.7 388V353.6C267.299 355.314 261.667 356.191 256 356.2V356ZM201.1 309.5L174.4 336.1C179.01 346.592 185.597 356.098 193.8 364.1L217.4 340.4C208.763 332.097 203.045 321.222 201.1 309.4V309.5ZM337.6 336.1L310.9 309.5C308.948 321.32 303.231 332.193 294.6 340.5L318.2 364C326.391 356.026 332.977 346.555 337.6 336.1Z" fill="var(--flag-palette-bright-red, #d80027)"/>
</svg>

<svg xmlns="http://www.w3.org/2000/svg" width="512" height="512" fill="none"><path fill="var(--flag-palette-light-blue, #338af3)" d="M0 0h512v512H0z"/><path fill="var(--flag-palette-mid-grey-3, #acabb1)" d="M122.4 278.3h267.2v33.4H122.4z"/><path fill="var(--flag-palette-yellow, #ffda44)" d="m167 178 89 11.2 89-11.1v-53.4l-35.6 17.8L256 89l-53.4 53.5-35.6-17.8z"/><path fill="var(--flag-palette-white, #eeeeee)" d="M144.7 345h-33.4v-61.2l11.1-16.7-11.1-16.7v-39h33.4zm256 0h-33.4V211.6h33.4v39l-11.1 17 11.1 16.3z"/><path fill="var(--flag-palette-mid-grey-3, #acabb1)" d="M111.3 250.4h289.4v33.4H111.3z"/><path fill="var(--flag-palette-white, #eeeeee)" d="M256 389.6c-49.1 0-89-40-89-89V178h178v122.4a89 89 0 0 1-89 89z"/><path fill="var(--flag-palette-blue, #0052b4)" d="M256 356.2a55.7 55.7 0 0 1-55.6-55.7v-89h111.2v89a55.7 55.7 0 0 1-55.6 55.7"/><path fill="var(--flag-palette-bright-red, #d80027)" d="M167 178h33.4v33.5H167zm144.7 0H345v33.5h-33.4zm0 72.4H345v33.4h-33.4zm-144.7 0h33.3v33.4H167zm72.3-72.3h33.4v33.4h-33.4zM256 356q-8.7 0-16.7-2.5V388q16.7 3.2 33.4 0v-34.4q-8.1 2.6-16.7 2.6zm-54.9-46.5-26.7 26.6a89 89 0 0 0 19.4 28l23.6-23.7a56 56 0 0 1-16.3-31zm136.5 26.6-26.7-26.6a56 56 0 0 1-16.3 31l23.6 23.5q12.4-12 19.4-27.9"/></svg>
